X:1
T: Jack By The Hedge (Alliaria petiolata)
N:
C:
S:Can end with either tune
A:
O:
R:
M:6/8
K:G
I:speed 165
%W: A1                                                                                Jack by the Hedge
% voice 1 (1 lines, 31 notes)
K:G
M:6/8
L:1/16
D2 |G4 E2 D4 G,2 B,4 D2 G6 B4 B2 B2 A2 G2 B4 d2 e4 g2 |G4 E2 D4 G,2 B,4 D2 G4 A2 B4 B2 d4 B2 A6 G6 |
%W: A2
% voice 1 (1 lines, 30 notes)
G4 E2 D4 G,2 B,4 D2 G6 B4 B2 B2 A2 G2 B4 d2 e4 g2 |G4 E2 D4 G,2 B,4 D2 G4 A2 B4 B2 d4 B2 A6 G6 |
%W: B1
% voice 1 (1 lines, 34 notes)
B4 B2 B2 A2 G2 B4 d2 e4 g2 B4 B2 B2 A2 G2 B2 d2 B2 A4 c2 |B4 B2 B2 A2 G2 B4 d2 e4 g2 g4 e2 d4 B2 A6 G6 |
%W: B2
% voice 1 (1 lines, 34 notes)
B4 B2 B2 A2 G2 B4 d2 e4 g2 B4 B2 B2 A2 G2 B2 d2 B2 A4 c2 |B4 B2 B2 A2 G2 B4 d2 e4 g2 g4 e2 d4 B2 A6 G4 ||
%W: A1                                                                                We Johns
% voice 1 (1 lines, 35 notes)
K:Am
E2 |A4 B2 c4 d2 e4 A2 A4 c2 B4 G2 d4 G2 B2 c2 d2 B4 G2 |A4 B2 c4 d2 e4 ^f2 g4 e2 a2 g2 e2 d2 c2 B2 c4 A2 A6 |
%W: A2
% voice 1 (1 lines, 34 notes)
A4 B2 c4 d2 e4 A2 A4 c2 B4 G2 d4 G2 B2 c2 d2 B4 G2 |A4 B2 c4 d2 e4 ^f2 g4 e2 a2 g2 e2 d2 c2 B2 c4 A2 A6 |
%W: B1
% voice 1 (1 lines, 35 notes)
a4 g2 e4 ^f2 g4 d2 B2 c2 d2 e4 c2 A2 B2 c2 d4 A2 F4 G2 |A4 B2 c4 d2 e4 f2 g4 e2 a2 g2 e2 d2 c2 B2 c4 A2 A6 |
%W: B2
% voice 1 (1 lines, 35 notes)
a4 g2 e4 ^f2 g4 d2 B2 c2 d2 e4 c2 A2 B2 c2 d4 A2 F4 G2 |A4 B2 c4 d2 e4 f2 g4 e2 a2 g2 e2 d2 c2 B2 c4 A2 A4 ||
